X: 547
T:Reavy's Hornpipe
C:Ed Reavy (1897 - 1988)
Z: Appris d'Olivier Rozent en 2008, transcrit par JMC
M:4/4
L:1/8
R:Hornpipe
K:G
B>c|:(3dcB g>d B>d c>B | A>g f>a g>f g>e | d>^c e>d =c>Bc>A | 
G>B A>G (3FED (3CB,A, | G,>B, D>G B>G D>B, | C2 E>G c2 d>c | 
(3BdB G>B (3ABA F>A| [1G2 G>F G2 B>c :| [2G>g f>a g>f g>a ]||: b>g d>g b>g d>g | 
a>f d>f a>f d>f | (3gag (3fgf e2 d>B | G>B A>G (3FED (3CB,A, | G,>B, D>G B>G D>B, | 
C2 E>G c2 d>c | (3BdB G>B (3ABA F>A | [1G>g f>a g>f g>a :| [2 G2 G>F G4||

